public/ChakraJS.svg

<svg width="50" height="50" viewBox="0 0 50 50" fill="none" xmlns="http://www.w3.org/2000/svg">
<path d="M25 0C11.15 0 0 11.15 0 25C0 38.85 11.15 50 25 50C38.85 50 50 38.85 50 25C50 11.15 38.85 0 25 0ZM30.8333 9.02708C31.1042 9.01875 31.35 9.31042 31.1896 9.60625L24.8479 21.2313C24.8158 21.2905 24.7997 21.3571 24.8011 21.4245C24.8024 21.4918 24.8212 21.5578 24.8557 21.6157C24.8901 21.6736 24.9389 21.7217 24.9974 21.755C25.056 21.7884 25.1222 21.8061 25.1896 21.8062H36.1479C36.5021 21.8062 36.6729 22.2375 36.4146 22.4792L17.2062 40.4062C16.8625 40.7271 16.3521 40.275 16.6271 39.8938L25.7187 27.35C25.7604 27.2919 25.7853 27.2235 25.7907 27.1523C25.7961 27.0809 25.7817 27.0096 25.7492 26.9459C25.7167 26.8822 25.6674 26.8287 25.6065 26.7912C25.5457 26.7537 25.4757 26.7337 25.4042 26.7333H13.8062C13.7291 26.7332 13.6537 26.7101 13.5897 26.667C13.5257 26.6239 13.4759 26.5627 13.4467 26.4913C13.4174 26.4199 13.4101 26.3414 13.4255 26.2658C13.4409 26.1902 13.4784 26.1209 13.5333 26.0667L30.575 9.14375C30.6433 9.07243 30.7367 9.03058 30.8354 9.02708H30.8333Z" fill="#1096E1"/>
</svg>

<svg xmlns="http://www.w3.org/2000/svg" width="50" height="50" fill="none" xmlns:v="https://vecta.io/nano"><path d="M25 0C11.15 0 0 11.15 0 25s11.15 25 25 25 25-11.15 25-25S38.85 0 25 0zm5.833 9.027c.271-.008.517.283.356.579l-6.342 11.625a.39.39 0 0 0 .008.384.39.39 0 0 0 .334.191h10.958a.39.39 0 0 1 .267.673L17.206 40.406c-.344.321-.854-.131-.579-.512l9.092-12.544a.39.39 0 0 0 .03-.404.39.39 0 0 0-.345-.213H13.806a.39.39 0 0 1-.36-.242.39.39 0 0 1 .087-.425L30.575 9.144a.38.38 0 0 1 .26-.117h-.002z" fill="#1096e1"/></svg>
